cmd/conneroh/_static/dist/svg/building.svg

<svg height="18" viewBox="0 0 18 18" width="18" xmlns="http://www.w3.org/2000/svg"><g fill="none" stroke="#fff" stroke-linecap="round" stroke-linejoin="round" stroke-width="2" transform="scale(.75)"><path d="m6 2h12c1.104167 0 2 .895833 2 2v16c0 1.104167-.895833 2-2 2h-12c-1.104167 0-2-.895833-2-2v-16c0-1.104167.895833-2 2-2zm0 0"/><path d="m9 22v-4h6v4m-7-16h.010417m7.989583 0h.010417m-4.010417 0h.010417m-.010417 4h.010417m-.010417 4h.010417m3.989583-4h.010417m-.010417 4h.010417m-8.010417-4h.010417m-.010417 4h.010417"/></g></svg>

<svg xmlns="http://www.w3.org/2000/svg" width="24" height="24" fill="none" stroke="white" stroke-linecap="round" stroke-linejoin="round" stroke-width="2">
    <rect width="16" height="20" x="4" y="2" rx="2" ry="2"/>
    <path d="M9 22v-4h6v4M8 6h.01M16 6h.01M12 6h.01M12 10h.01M12 14h.01M16 10h.01M16 14h.01M8 10h.01M8 14h.01"/>
</svg>
